!!!OTL: It Is of a Rich Lady
!!!ONM: 38.
**kern
*clefG2
*k[f#c#]
*D:
*M3/4
*MM96
{8d
8f#
=1
4a
4a
(8b
8a)
=2
4f#
4f#
4d
=3
4e
4e
4e
=4
4d
4r}
{(8f#
8g)
=5
4a
4a
(8b
8a)
=6
4g
4g
4b
=7
4dd
4dd
(8dd
8b)
=8
4a
4r}
{(8d
8f#)
=9
4a
4a
(8b
8a)
=10
4g
4g
4b
=11
4dd
4dd
(8dd
8b)
=12
4a
4r}
{4d
=13
4a
4a
8b
8a
=14
4f#
4f#
4d
=15
4e
4e
4e
=16
2d}
==
*-
!!!CNT: Folksongs of Maritime Canada
!!!MRD: 1928///-1932///
!!!OCL: Helen Creighton
!!!YOR: Songs and Ballads from Nova Scotia
!!!PPR: J.M. Dent & Sons, Limited
!!!PPP: Toronto, Canada
!!!PDT: 1932///
!!!reprint: Dover Publications, 1992: ISBN 0-486-21703-5
!!!ENC1: Craig Stuart Sapp (music and bibliographic data)                       
!!!ENC2: Marcus Pearce (phrase markings and key designations)                   
!!!ENC3: Darrell Conklin (phrase markings and key designations)   
!!!END: 2002/04/10/
!!!EEV: 2004/06/05
!!!MPN: Mr. Richard Hartlan
!!!PPG: 76
!!!EFL: 38/152
!!!ARE: Canada; Nova Scotia
!!!verses: 7
!!!VTS: 3469563935
